assets/images/results/2.svg

<svg width="705" height="30" viewBox="0 0 705 30" fill="none" xmlns="http://www.w3.org/2000/svg">
<g opacity="0.1">
<rect width="23" height="30" rx="4" fill="white"/>
</g>
<rect x="27" width="23" height="30" rx="4" fill="#7D9D3B"/>
<path d="M35.574 20C35.574 19.4307 35.6113 18.9313 35.686 18.502C35.7607 18.0633 35.8773 17.676 36.036 17.34C36.204 16.9947 36.4187 16.6913 36.68 16.43C36.9413 16.1687 37.2633 15.9213 37.646 15.688C37.9727 15.5013 38.3087 15.3193 38.654 15.142C39.0087 14.9647 39.3353 14.778 39.634 14.582C39.942 14.386 40.1893 14.162 40.376 13.91C40.572 13.658 40.67 13.35 40.67 12.986C40.67 12.706 40.6093 12.468 40.488 12.272C40.376 12.0667 40.208 11.908 39.984 11.796C39.7693 11.684 39.508 11.628 39.2 11.628C38.8453 11.628 38.514 11.6933 38.206 11.824C37.9073 11.9453 37.6367 12.0993 37.394 12.286C37.1607 12.4633 36.96 12.6407 36.792 12.818L35.616 11.586C35.7467 11.4367 35.924 11.2687 36.148 11.082C36.3813 10.8953 36.6567 10.7133 36.974 10.536C37.3007 10.3587 37.6693 10.214 38.08 10.102C38.4907 9.99 38.9433 9.934 39.438 9.934C40.166 9.934 40.7773 10.0647 41.272 10.326C41.7667 10.578 42.14 10.928 42.392 11.376C42.6533 11.8147 42.784 12.3233 42.784 12.902C42.784 13.322 42.714 13.6953 42.574 14.022C42.4433 14.3393 42.2613 14.6193 42.028 14.862C41.7947 15.1047 41.5333 15.324 41.244 15.52C40.9547 15.7067 40.656 15.8887 40.348 16.066C39.8627 16.3273 39.4707 16.556 39.172 16.752C38.8733 16.948 38.6353 17.13 38.458 17.298C38.29 17.466 38.1593 17.634 38.066 17.802C37.982 17.9607 37.9073 18.1287 37.842 18.306H42.798V20H35.574Z" fill="white"/>
<path d="M54 4C54 1.79086 55.7909 0 58 0H73C75.2091 0 77 1.79086 77 4V26C77 28.2091 75.2091 30 73 30H58C55.7909 30 54 28.2091 54 26V4Z" fill="white" fill-opacity="0.1"/>
<path d="M54 4C54 1.79086 55.7909 0 58 0H73C75.2091 0 77 1.79086 77 4V26C77 28.2091 75.2091 30 73 30H58C55.7909 30 54 28.2091 54 26V4Z" fill="url(#paint0_linear_13_155)"/>
<rect x="81" width="23" height="30" rx="4" fill="#38BCE2"/>
<path d="M96.938 16.682C96.938 17.326 96.7747 17.9093 96.448 18.432C96.1307 18.9547 95.6967 19.37 95.146 19.678C94.6047 19.986 93.9887 20.14 93.298 20.14C92.5513 20.14 91.9027 19.958 91.352 19.594C90.8107 19.23 90.3907 18.7073 90.092 18.026C89.7933 17.3447 89.644 16.528 89.644 15.576C89.644 14.372 89.798 13.3547 90.106 12.524C90.4233 11.684 90.8713 11.054 91.45 10.634C92.0287 10.2047 92.71 9.99 93.494 9.99C94.1193 9.99 94.6933 10.1253 95.216 10.396C95.748 10.6667 96.196 11.054 96.56 11.558L95.482 12.734C95.258 12.3887 94.9687 12.118 94.614 11.922C94.2593 11.7167 93.8767 11.614 93.466 11.614C93.046 11.614 92.682 11.726 92.374 11.95C92.066 12.174 91.828 12.5007 91.66 12.93C91.492 13.35 91.3987 13.8587 91.38 14.456C91.5107 14.232 91.6787 14.0407 91.884 13.882C92.0893 13.714 92.3273 13.588 92.598 13.504C92.8687 13.4107 93.158 13.364 93.466 13.364C94.1287 13.364 94.7213 13.5133 95.244 13.812C95.7667 14.1013 96.1773 14.498 96.476 15.002C96.784 15.4967 96.938 16.0567 96.938 16.682ZM93.298 18.558C93.634 18.558 93.942 18.474 94.222 18.306C94.502 18.1287 94.726 17.9 94.894 17.62C95.062 17.3307 95.146 17.018 95.146 16.682C95.146 16.346 95.062 16.0427 94.894 15.772C94.726 15.492 94.502 15.2727 94.222 15.114C93.9513 14.946 93.648 14.862 93.312 14.862C92.976 14.862 92.668 14.946 92.388 15.114C92.108 15.2727 91.884 15.492 91.716 15.772C91.5573 16.0427 91.478 16.346 91.478 16.682C91.478 17.018 91.562 17.3307 91.73 17.62C91.898 17.9 92.122 18.1287 92.402 18.306C92.682 18.474 92.9807 18.558 93.298 18.558Z" fill="white"/>
<g opacity="0.1">
<rect x="108" width="23" height="30" rx="4" fill="white"/>
</g>
<g opacity="0.1">
<rect x="135" width="23" height="30" rx="4" fill="white"/>
</g>
<g opacity="0.1">
<rect x="162" width="23" height="30" rx="4" fill="white"/>
</g>
<g opacity="0.1">
<rect x="189" width="23" height="30" rx="4" fill="white"/>
</g>
<g opacity="0.1">
<rect x="216" width="23" height="30" rx="4" fill="white"/>
</g>
<g opacity="0.1">
<rect x="243" width="23" height="30" rx="4" fill="white"/>
</g>
<g opacity="0.1">
<rect x="270" width="23" height="30" rx="4" fill="white"/>
</g>
<g opacity="0.1">
<rect x="297" width="23" height="30" rx="4" fill="white"/>
</g>
<g opacity="0.1">
<rect x="324" width="24" height="30" rx="4" fill="white"/>
</g>
<g opacity="0.1">
<rect x="352" width="23" height="30" rx="4" fill="white"/>
</g>
<g opacity="0.1">
<rect x="379" width="24" height="30" rx="4" fill="white"/>
</g>
<g opacity="0.1">
<rect x="407" width="23" height="30" rx="4" fill="white"/>
</g>
<g opacity="0.1">
<rect x="434" width="24" height="30" rx="4" fill="white"/>
</g>
<g opacity="0.1">
<rect x="462" width="23" height="30" rx="4" fill="white"/>
</g>
<g opacity="0.1">
<rect x="489" width="24" height="30" rx="4" fill="white"/>
</g>
<g opacity="0.1">
<rect x="517" width="23" height="30" rx="4" fill="white"/>
</g>
<g opacity="0.1">
<rect x="544" width="24" height="30" rx="4" fill="white"/>
</g>
<g opacity="0.1">
<rect x="572" width="23" height="30" rx="4" fill="white"/>
</g>
<g opacity="0.1">
<rect x="599" width="24" height="30" rx="4" fill="white"/>
</g>
<g opacity="0.1">
<rect x="627" width="23" height="30" rx="4" fill="white"/>
</g>
<g opacity="0.1">
<rect x="654" width="24" height="30" rx="4" fill="white"/>
</g>
<g opacity="0.1">
<rect x="682" width="23" height="30" rx="4" fill="white"/>
</g>
<defs>
<linearGradient id="paint0_linear_13_155" x1="54" y1="15" x2="77" y2="15" gradientUnits="userSpaceOnUse">
<stop stop-color="#7D9D3B"/>
<stop offset="1" stop-color="#38BCE2"/>
</linearGradient>
</defs>
</svg>

<svg xmlns="http://www.w3.org/2000/svg" width="705" height="30" fill="none" viewBox="0 0 705 30"><rect width="23" height="30" fill="#fff" opacity="0.1" rx="4"/><rect width="23" height="30" x="27" fill="#7D9D3B" rx="4"/><path fill="#fff" d="M35.574 20q0-.855.112-1.498.112-.658.35-1.162.252-.518.644-.91a5.2 5.2 0 0 1 .966-.742q.49-.28 1.008-.546.532-.266.98-.56.462-.294.742-.672.294-.378.294-.924 0-.42-.182-.714a1.13 1.13 0 0 0-.504-.476 1.7 1.7 0 0 0-.784-.168q-.532 0-.994.196-.449.181-.812.462a5 5 0 0 0-.602.532l-1.176-1.232q.195-.224.532-.504a6 6 0 0 1 .826-.546 5.2 5.2 0 0 1 1.106-.434q.615-.168 1.358-.168 1.093 0 1.834.392a2.6 2.6 0 0 1 1.12 1.05q.392.658.392 1.526 0 .63-.21 1.12-.196.476-.546.84a5 5 0 0 1-.784.658q-.434.28-.896.546-.728.392-1.176.686a5 5 0 0 0-.714.546 2.3 2.3 0 0 0-.392.504 4 4 0 0 0-.224.504h4.956V20z"/><path fill="#fff" fill-opacity="0.1" d="M54 4a4 4 0 0 1 4-4h15a4 4 0 0 1 4 4v22a4 4 0 0 1-4 4H58a4 4 0 0 1-4-4z"/><path fill="url(#a)" d="M54 4a4 4 0 0 1 4-4h15a4 4 0 0 1 4 4v22a4 4 0 0 1-4 4H58a4 4 0 0 1-4-4z"/><rect width="23" height="30" x="81" fill="#38BCE2" rx="4"/><path fill="#fff" d="M96.938 16.682q0 .966-.49 1.75a3.5 3.5 0 0 1-1.302 1.246q-.812.462-1.848.462-1.12 0-1.946-.546-.811-.546-1.26-1.568t-.448-2.45q0-1.806.462-3.052.475-1.26 1.344-1.89.868-.645 2.044-.644.938 0 1.722.406.798.406 1.344 1.162l-1.078 1.176a2.4 2.4 0 0 0-.868-.812 2.25 2.25 0 0 0-1.148-.308q-.63 0-1.092.336-.462.335-.714.98-.252.63-.28 1.526a2 2 0 0 1 .504-.574q.307-.252.714-.378.405-.14.868-.14.994 0 1.778.448.784.435 1.232 1.19.462.742.462 1.68m-3.64 1.876q.504 0 .924-.252.42-.266.672-.686.252-.434.252-.938 0-.505-.252-.91-.252-.42-.672-.658a1.7 1.7 0 0 0-.91-.252q-.504 0-.924.252-.42.238-.672.658-.238.406-.238.91t.252.938q.252.42.672.686.42.252.896.252"/><rect width="23" height="30" x="108" fill="#fff" opacity="0.1" rx="4"/><rect width="23" height="30" x="135" fill="#fff" opacity="0.1" rx="4"/><rect width="23" height="30" x="162" fill="#fff" opacity="0.1" rx="4"/><rect width="23" height="30" x="189" fill="#fff" opacity="0.1" rx="4"/><rect width="23" height="30" x="216" fill="#fff" opacity="0.1" rx="4"/><rect width="23" height="30" x="243" fill="#fff" opacity="0.1" rx="4"/><rect width="23" height="30" x="270" fill="#fff" opacity="0.1" rx="4"/><rect width="23" height="30" x="297" fill="#fff" opacity="0.1" rx="4"/><rect width="24" height="30" x="324" fill="#fff" opacity="0.1" rx="4"/><rect width="23" height="30" x="352" fill="#fff" opacity="0.1" rx="4"/><rect width="24" height="30" x="379" fill="#fff" opacity="0.1" rx="4"/><rect width="23" height="30" x="407" fill="#fff" opacity="0.1" rx="4"/><rect width="24" height="30" x="434" fill="#fff" opacity="0.1" rx="4"/><rect width="23" height="30" x="462" fill="#fff" opacity="0.1" rx="4"/><rect width="24" height="30" x="489" fill="#fff" opacity="0.1" rx="4"/><rect width="23" height="30" x="517" fill="#fff" opacity="0.1" rx="4"/><rect width="24" height="30" x="544" fill="#fff" opacity="0.1" rx="4"/><rect width="23" height="30" x="572" fill="#fff" opacity="0.1" rx="4"/><rect width="24" height="30" x="599" fill="#fff" opacity="0.1" rx="4"/><rect width="23" height="30" x="627" fill="#fff" opacity="0.1" rx="4"/><rect width="24" height="30" x="654" fill="#fff" opacity="0.1" rx="4"/><rect width="23" height="30" x="682" fill="#fff" opacity="0.1" rx="4"/><defs><linearGradient id="a" x1="54" x2="77" y1="15" y2="15" gradientUnits="userSpaceOnUse"><stop stop-color="#7D9D3B"/><stop offset="1" stop-color="#38BCE2"/></linearGradient></defs></svg>
